resources/icons/16px/array-floating-point.svg

<svg width="16" height="16" viewBox="0 0 16 16" fill="none" xmlns="http://www.w3.org/2000/svg">
<path d="M15.9933 0.883379C15.9355 0.38604 15.5128 0 15 0H12L11.8834 0.00672773C11.386 0.0644928 11 0.487164 11 1L11.0067 1.11662C11.0645 1.61396 11.4872 2 12 2H14V14H12L11.8834 14.0067C11.386 14.0645 11 14.4872 11 15C11 15.5523 11.4477 16 12 16H15L15.1166 15.9933C15.614 15.9355 16 15.5128 16 15V1L15.9933 0.883379Z" fill="#5F6B7C"/>
<path d="M5 1C5 0.447715 4.55228 0 4 0H1L0.883379 0.00672773C0.38604 0.0644928 0 0.487164 0 1V15L0.00672773 15.1166C0.0644928 15.614 0.487164 16 1 16H4L4.11662 15.9933C4.61396 15.9355 5 15.5128 5 15L4.99327 14.8834C4.93551 14.386 4.51284 14 4 14H2V2H4L4.11662 1.99327C4.61396 1.93551 5 1.51284 5 1Z" fill="#5F6B7C"/>
<path d="M4.34712 5.85968C4.16997 5.89094 3.98762 5.90657 3.80005 5.90657V6.60995H5.14428V10.4707H6.12119V5H5.39436C5.3631 5.16673 5.29537 5.3074 5.19117 5.42202C5.09217 5.53665 4.96974 5.63043 4.82385 5.70337C4.68318 5.77632 4.52426 5.82842 4.34712 5.85968Z" fill="#5F6B7C"/>
<path fill-rule="evenodd" clip-rule="evenodd" d="M11.4617 5.26914C11.226 5.09362 10.9201 5.00586 10.544 5.00586C10.1678 5.00586 9.85944 5.09362 9.61873 5.26914C9.38303 5.43964 9.19748 5.66029 9.06208 5.93109C8.9317 6.19687 8.84143 6.49024 8.79128 6.81119C8.74615 7.13214 8.72358 7.44305 8.72358 7.74394C8.72358 8.04483 8.74615 8.35575 8.79128 8.67669C8.84143 8.99764 8.9317 9.29352 9.06208 9.56431C9.19748 9.8301 9.38303 10.0507 9.61873 10.2263C9.85944 10.3968 10.1678 10.482 10.544 10.482C10.9201 10.482 11.226 10.3968 11.4617 10.2263C11.7024 10.0507 11.8879 9.8301 12.0183 9.56431C12.1537 9.29352 12.244 8.99764 12.2891 8.67669C12.3393 8.35575 12.3643 8.04483 12.3643 7.74394C12.3643 7.44305 12.3393 7.13214 12.2891 6.81119C12.244 6.49024 12.1537 6.19687 12.0183 5.93109C11.8879 5.66029 11.7024 5.43964 11.4617 5.26914ZM11.0103 9.60945C10.885 9.71476 10.7295 9.76741 10.544 9.76741C10.3534 9.76741 10.1954 9.71476 10.0701 9.60945C9.9497 9.49912 9.85192 9.35369 9.77669 9.17316C9.70649 8.98761 9.65634 8.77198 9.62625 8.52625C9.59616 8.28053 9.58112 8.01976 9.58112 7.74394C9.58112 7.46813 9.59616 7.20986 9.62625 6.96915C9.65634 6.72343 9.70649 6.50779 9.77669 6.32224C9.85192 6.1367 9.9497 5.99127 10.0701 5.88596C10.1954 5.77563 10.3534 5.72047 10.544 5.72047C10.7295 5.72047 10.885 5.77563 11.0103 5.88596C11.1357 5.99127 11.2335 6.1367 11.3037 6.32224C11.3789 6.50779 11.4316 6.72343 11.4617 6.96915C11.4918 7.20986 11.5068 7.46813 11.5068 7.74394C11.5068 8.01976 11.4918 8.28053 11.4617 8.52625C11.4316 8.77198 11.3789 8.98761 11.3037 9.17316C11.2335 9.35369 11.1357 9.49912 11.0103 9.60945Z" fill="#5F6B7C"/>
<path d="M7.08247 9.44531H8.16879V10.5004H7.08247V9.44531Z" fill="#5F6B7C"/>
</svg>

<svg xmlns="http://www.w3.org/2000/svg" viewBox="0 0 16 16">
  <path d="M15.993.883A1 1 0 0 0 15 0h-3l-.117.007A1 1 0 0 0 11 1l.007.117A1 1 0 0 0 12 2h2v12h-2l-.117.007A1 1 0 0 0 12 16h3l.117-.007A1 1 0 0 0 16 15V1zM5 1a1 1 0 0 0-1-1H1L.883.007A1 1 0 0 0 0 1v14l.007.117A1 1 0 0 0 1 16h3l.117-.007A1 1 0 0 0 5 15l-.007-.117A1 1 0 0 0 4 14H2V2h2l.117-.007A1 1 0 0 0 5 1"/>
  <path d="M4.347 5.86q-.266.046-.547.047v.703h1.344v3.86h.977V5h-.727a.84.84 0 0 1-.203.422 1.2 1.2 0 0 1-.367.281q-.21.11-.477.157M11.462 5.27q-.354-.264-.918-.264t-.925.263a1.8 1.8 0 0 0-.557.662q-.195.4-.27.88-.069.481-.068.933 0 .45.067.933.075.481.271.887.203.4.557.662.36.255.925.256.564 0 .918-.256.36-.263.556-.662a2.9 2.9 0 0 0 .271-.887q.075-.482.075-.933 0-.45-.075-.933a2.8 2.8 0 0 0-.27-.88 1.7 1.7 0 0 0-.557-.662m-.452 4.34a.7.7 0 0 1-.466.157.7.7 0 0 1-.474-.158 1.2 1.2 0 0 1-.293-.436 2.8 2.8 0 0 1-.15-.647 6 6 0 0 1-.046-.782q0-.414.045-.775.045-.369.15-.647.114-.277.294-.436a.7.7 0 0 1 .474-.166.68.68 0 0 1 .466.166q.188.157.294.436.113.278.158.647.045.361.045.775t-.045.782q-.045.37-.158.647-.105.27-.294.436M7.082 9.445H8.17V10.5H7.082z"/>
</svg>
